web/themes/custom/surf_main/images/icons/ui-icon-youtube.svg

<svg fill="none" height="28" viewBox="0 0 28 28" width="28" xmlns="http://www.w3.org/2000/svg"><path d="m27.4359 6.57692c.2051.92308.4103 2.35898.5128 4.20518l.0513 2.5641-.0513 2.5641c-.1025 1.9487-.3077 3.3333-.5128 4.2564-.2051.6154-.5128 1.1282-.9231 1.5384-.4615.4616-.9743.7693-1.5897.9231-.9231.2564-2.9744.4103-6.2564.5128l-4.6667.0513-4.66667-.0513c-3.28205-.1025-5.38461-.2564-6.25641-.5128-.61538-.1538-1.17948-.4615-1.58974-.9231-.46154-.4102-.769231-.923-.923077-1.5384-.256411-.9231-.410257-2.3077-.5128209-4.2564l-.0512821-2.5641c0-.718 0-1.5898.0512821-2.5641.1025639-1.8462.2564099-3.2821.5128209-4.20518.153846-.61538.461537-1.1282.923077-1.58974.41026-.41026.97436-.71795 1.58974-.92308.8718-.20513 2.97436-.41025 6.25641-.51282l4.66667-.05128 4.6667.05128c3.282.10257 5.3333.30769 6.2564.51282.6154.20513 1.1282.51282 1.5897.92308.4103.46154.718.97436.9231 1.58974zm-16.3077 10.97438 7.3333-4.2051-7.3333-4.15389z" fill="#222"/></svg>

<svg width="28" height="28" viewBox="0 0 28 28" fill="none" xmlns="http://www.w3.org/2000/svg">
<path d="M27.4359 6.57692C27.641 7.5 27.8462 8.9359 27.9487 10.7821L28 13.3462L27.9487 15.9103C27.8462 17.859 27.641 19.2436 27.4359 20.1667C27.2308 20.7821 26.9231 21.2949 26.5128 21.7051C26.0513 22.1667 25.5385 22.4744 24.9231 22.6282C24 22.8846 21.9487 23.0385 18.6667 23.141L14 23.1923L9.33333 23.141C6.05128 23.0385 3.94872 22.8846 3.07692 22.6282C2.46154 22.4744 1.89744 22.1667 1.48718 21.7051C1.02564 21.2949 0.717949 20.7821 0.564103 20.1667C0.307692 19.2436 0.153846 17.859 0.0512821 15.9103L0 13.3462C0 12.6282 0 11.7564 0.0512821 10.7821C0.153846 8.9359 0.307692 7.5 0.564103 6.57692C0.717949 5.96154 1.02564 5.44872 1.48718 4.98718C1.89744 4.57692 2.46154 4.26923 3.07692 4.0641C3.94872 3.85897 6.05128 3.65385 9.33333 3.55128L14 3.5L18.6667 3.55128C21.9487 3.65385 24 3.85897 24.9231 4.0641C25.5385 4.26923 26.0513 4.57692 26.5128 4.98718C26.9231 5.44872 27.2308 5.96154 27.4359 6.57692ZM11.1282 17.5513L18.4615 13.3462L11.1282 9.19231V17.5513Z" fill="#222222"/>
</svg>
